svgs/light/camera-security.svg

<svg xmlns="http://www.w3.org/2000/svg" viewBox="0 0 448 512"><!-- Font Awesome Pro 6.0.0-alpha2 by @fontawesome - https://fontawesome.com License - https://fontawesome.com/license (Commercial License) --><path d="M384 0H64C28.654 0 0 28.652 0 64V352C0 387.346 28.654 416 64 416H107.697L71.438 459.5C63.406 469.156 61.719 482.219 67.047 493.594C72.375 504.938 83.484 512 96.031 512H351.969C364.516 512 375.625 504.938 380.953 493.594C386.281 482.219 384.594 469.156 376.563 459.5L340.303 416H384C419.346 416 448 387.346 448 352V64C448 28.652 419.346 0 384 0ZM351.969 480H96.031L149.379 416H298.621L351.969 480ZM416 352C416 369.645 401.645 384 384 384H64C46.355 384 32 369.645 32 352V64C32 46.355 46.355 32 64 32H384C401.645 32 416 46.355 416 64V352ZM224 80C153.309 80 96 137.307 96 208C96 278.691 153.309 336 224 336C294.693 336 352 278.691 352 208C352 137.307 294.693 80 224 80ZM224 304C171.066 304 128 260.934 128 208C128 155.064 171.066 112 224 112C276.936 112 320 155.064 320 208C320 260.934 276.936 304 224 304Z"/></svg>

<svg xmlns="http://www.w3.org/2000/svg" viewBox="0 0 448 512"><!--! Font Awesome Pro 6.3.0 by @fontawesome - https://fontawesome.com License - https://fontawesome.com/license (Commercial License) Copyright 2023 Fonticons, Inc. --><path d="M384 0h-320c-35.35 0-64 28.65-64 64v288c0 35.35 28.65 64 64 64h43.7l-36.26 43.5c-8.031 9.656-9.719 22.72-4.391 34.09C72.38 504.9 83.48 512 96.03 512h255.9c12.55 0 23.66-7.062 28.98-18.41c5.328-11.38 3.641-24.44-4.391-34.09L340.3 416h43.7c35.35 0 64-28.65 64-64V64C448 28.65 419.3 0 384 0zM351.1 480H96.03l53.35-64h149.2L351.1 480zM416 352c0 17.64-14.36 32-32 32H64c-17.64 0-32-14.36-32-32V64c0-17.64 14.36-32 32-32h320c17.64 0 32 14.36 32 32V352zM224 80c-70.69 0-127.1 57.31-127.1 128c0 70.69 57.31 128 127.1 128c70.69 0 128-57.31 128-128C352 137.3 294.7 80 224 80zM224 304c-52.93 0-96-43.07-96-96c0-52.94 43.07-96 96-96c52.94 0 96 43.06 96 96C320 260.9 276.9 304 224 304z"/></svg>
